X: 18603
T: I Was Born For Sport
R: jig
M: 6/8
K: Gmajor
|:dgg fdd|cAB c2A|dgg fdd|cAF G3|
dgg fdd|cAB c2A|cde fed|cAF G3:|
|:cAA d2A|dfe dAB|cAA d2B|cAF GAB|
cAA d2A|dfe d3|cde fed|cAF G3:|

